X:1
T:Missa quarti toni
T:Attributed in the manuscript to "Alegre", probably intended to mean Gregorio Allegri (1582-1652)
T:From a manuscript (no 9-011) in the Música Colonial archive in Guatemala Cathedral
T:Missa quarti toni
T:Kyrie eleison
T:Copyright © 
T:Copyright © 
T:Copyright © 
T:Copyright © 
C:Attributed in the manuscript to "Alegre", probably
C:intended to mean Gregorio Allegri (1582-1652)
Z:From a manuscript (no 9-011) in the Música
Z:Colonial archive in Guatemala Cathedral
Z:Copyright ©
%%score [ 1 2 3 4 ]
L:1/8
M:4/4
K:C
V:1 treble nm="Soprano" snm="S."
V:2 treble nm="Alto" snm="A."
V:3 treble-8 transpose=-12 nm="Tenor" snm="T."
V:4 bass nm="Bass" snm="B."
V:1
 B4 c3 B | A2 A2 B3 A | ^G2 G2 A4 | z8 | z4 A4 | B3 A ^G2 G2 | A4 z4 | z2 E4 E2 | E2 z2 e4 | %9
w: Ky- ri- e,|_ Ky- ri- e|e- lei- son.||Ky-|ri- e e- lei-|son,|e- lei-|son, Ky-|
 f3 e d2 d2 | e3 d c2 c2 | d3 c B4 | E2 c2 A2 c2- | c2 B2 c2 B2- | B2 A2 B2 A2- | A2 ^G2 A2 =G2- | %16
w: ri- e e- *||* * lei-|son, Ky- ri- e|_ _ _ _|||
 G2 ^F2 E2 =F2- | F2 E2 F2 ED | E2 AB cB A2- | A2 ^G2 A8 ||[M:4/4] A4 ^G2 A2 | B4 A4- | A4 z4 | %23
w: ||* * * * * e-|* lei- son.|Chris- te e-|lei- son,|_|
 z4 E3 E | ^F2 G2 A2 B2 | ^G2 A4 G2 | A2 A2 ^G2 A2 | B4 A4 | z8 | z4 G3 G | A2 B2 c2 d2 | %31
w: Chris- te|_ _ _ _|* e- lei-|son, Chris- te e-|lei- son.||Chris- te|_ _ _ _|
 B2 c2 A2 B2- | B2 A4 ^G2 | A4 z4 | E3 E ^F2 G2 | A2 B2 ^G2 A2 | ^F2 G4 =F2 | E4 z4 | C3 C D2 E2 | %39
w: |* e- lei-|son,|Chris- te _ _|_ _ _ _|* e- lei-|son,|Chris- te _ _|
 F2 G2 F4- | F4 E8 ||[M:4/4] z8 | z4 A4 | ^G2 A2 BA =G2- | G2 F2 E4 | z4 A4 | ^G2 A2 BA =G2- | %47
w: _ e- lei-|* son.||Ky-|ri- e _ _ e-|* lei- son,|Ky-|ri- e _ _ e-|
 G2 F2 E4 | e4 d2 e2 | fe d4 c2 | dc B4 A2 | BA G4 F2 | GF E4 D2 | E2 FG A4- | A2 ^G^F x4 |] %55
w: * lei- son,|Ky- ri- e|_ _ _ _||||* * * e-|* lei- *|
V:2
 z4 E4 | F3 E D2 D2 | E3 D C2 C2 | D4 z4 | E4 F3 E | D2 D2 E3 D | ^C4 z2 D2- | D2 CB, A,B, C2 | %8
w: Ky-|ri- e _ _|_ _ e- lei-|son,|Ky- ri- e|e- * * lei-|son, Ky-|* ri- * e _ e-|
 B,4 C4 | z2 A2 ^F2 G2 | EFGF E2 F2 | DEFE D2 E2 | C4 D2 A,2 | A2 G2 G4- | G2 F2 F4 | F2 E4 E2 | %16
w: lei- son,|Ky- ri- e|_ _ _ _ _ _||e- lei- son,|Ky- ri- e|_ e- lei-|son, Ky- ri-|
 E2 D2 D4- | D2 C2 C2 A,B, | CB, A,2 z2 D2 | E4 ^C8 ||[M:4/4] z8 | z8 | E4 D2 E2 | F4 E2 C2 | %24
w: e _ e-|* lei- son, Ky- *|ri- * e e-|lei- son.|||Chris- te e-|lei- son, Chris-|
 D2 E2 ^C2 D2- | D2 C2 B,4 | A,3 A, B,2 C2 | D2 E2 ^C2 D2 | G4 ^F2 G2 | A4 G4 | F4 E2 F2 | G4 F4 | %32
w: te _ _ e-|* lei- son,|Chris- te _ _|_ _ _ _|e- * *|e- *||e- *|
 E4 D2 E2 | F4 E2 F2 | G2 G,2 D4 | C2 z2 z4 | D3 D E2 F2 | G2 A2 ^F2 G2 | E2 F4 E2- | E2 D4 C2 | %40
w: ||* e- lei-|son,|Chris- te _ _|_ _ _ _||* * e-|
 B,4 C8 ||[M:4/4] z4 E4 | D2 E2 FE D2- | D2 C2 B,4 | z4 E4 | D2 E2 FE D2- | D2 C2 B,CDB, | %47
w: lei- son.|Ky-|ri- e _ _ e-|* lei- son,|Ky-|ri- e _ _ _|_ _ _ _ _ _|
 ^C2 D4 =C2 | B,2 C4 B,2 | A,2 A2 G4 | F4 E4 | D4 C4 | B,2 C4 B,A, | G,2 A,B, C4 | B,8 |] %55
w: * e- *|||||* e- * *|e- * * lei-|son.|
V:3
 z8 | z4 B4 | c3 B A2 A2 | B3 A ^G2 G2 | A8 | z4 e4 | f3 e d2 d2 | e3 d cB A2- | A2 ^G2 A2 c2 | %9
w: |Ky-|ri- e, _ Ky-|ri- e e lei-|son,|Ky-|ri- e _ _|_ _ _ _ _|* lei- son, Ky-|
 A2 c4 B2 | c2 B4 A2 | B2 A4 ^G2 | A2 e2 f3 e | d2 d2 e3 d | c2 c2 d3 c | B2 B2 c3 B | A4 B3 A | %17
w: ri- e e-||* * lei-|son, Ky- ri- e|_ _ _ _||||
 G2 G2 A4 | z2 c2- c2 BA | B4 A8 ||[M:4/4] z8 | z8 | E3 E ^F2 ^G2 | A2 B2 ^G2 A2- | A2 G4 F2 | %25
w: e- lei- son,|e- * * *|lei- son.|||Chris- te _ _|_ _ _ _|* e- lei-|
 E4 z4 | z8 | z4 A3 A | B2 c2 d2 e2 | ^c2 d2 B2 =c2- | c2 B4 A2 | G2 c3 A d2- | d2 c2 B4 | %33
w: son,||Chris- te|_ _ _ _||* e- lei-|son, Chris- te _|_ _ _|
 A2 B2 ^c2 d2- | d2 c4 B2 | A2 d4 c2 | c2 B2 A4 | G2 c4 B2- | B2 A2 G4 | z2 B4 A2- | A2 ^G2 A8 || %41
w: |* e- lei-|son, Chris- te|_ _ _|* * e-|* lei- son,|e- *|* lei- son.|
[M:4/4] A4 ^G2 A2 | BA E4 D2 | C4 z4 | A4 ^G2 A2 | BA G4 F2 | E3 F GABG | A2 D2 A4 | z4 z2 e2 | %49
w: Ky- ri- e|_ _ e- lei-|son,|Ky- ri- e|_ _ _ _||e- lei- son,|Ky-|
 ^c2 d2 B2 =c2 | A2 B2 G2 A2 | ^F2 G2 E2 =F2 | D2 E2 F4 | E8 | E8 |] %55
w: ri- e _ _|_ _ _ _||* * e-|lei-|son.|
V:4
 z8 | z8 | E,4 F,3 E, | D,2 D,2 E,3 D, | ^C,2 C,2 D,4 | B,,4 C,3 B,, | A,,2 A,,2 B,,3 A,, | %7
w: ||Ky- ri- e|_ _ _ _||||
 ^G,,2 A,,B,, C,G,, A,,2 | E,4 A,,4 | z8 | z8 | z8 | z4 z2 A,2 | ^F,2 G,2 E,=F,G,F, | %14
w: * * * * * e-|lei- son,||||Ky-|ri- e e _ _ _|
 E,2 F,2 D,E,F,E, | D,2 E,2 C,D,E,D, | ^C,2 D,2 B,,=C,D,C, | B,,2 C,2 A,,B,,C,B,, | %18
w: _ _ _ _ _ _||||
 A,,B,,C,D, E,2 F,2 | E,4 A,,8 ||[M:4/4] A,,3 A,, B,,2 C,2 | D,2 E,2 ^C,2 D,2- | D,2 C,4 B,,2 | %23
w: * * * * * e|lei- son.|Chris- te, _ _|_ _ Chris- te|_ _ _|
 A,,2 D,2 E,2 A,,2 | z8 | E,4 D,2 E,2 | F,4 E,2 A,2- | A,2 G,4 F,2- | F,2 E,2 D,2 G,2- | %29
w: * e- lei- son,||Chris- te _|_ _ _|||
 G,2 F,4 E,2- | E,2 D,2 C,2 F,2- | F,2 E,4 D,2 | E,4 z4 | z8 | E,4 D,2 E,2 | F,4 E,4 | %36
w: ||* e- lei-|son,||Chris- te _|_ _|
 D,4 ^C,2 D,2 | E,4 D,4 | C,4 B,,2 C,2 | D,2 B,,2 C,2 B,,A,, | E,4 A,,8 ||[M:4/4] z8 | z8 | %43
w: |e- *||* * e- * *|lei- son.|||
 E,4 D,2 E,2 | F,E, D,4 C,2 | B,,2 C,2 D,E,F,D, | E,2 A,,2 E,4 | z4 A,4 | ^G,2 A,2 B,A, =G,2- | %49
w: Ky- ri- e|_ _ _ _||e- lei- son,|Ky-|ri- e _ _ _|
 G,2 ^F,2 G,=F, E,2- | E,2 D,2 E,D, C,2- | C,2 B,,2 C,B,, A,,2- | A,,2 ^G,,2 A,,2 B,,2 | %53
w: _ _ _ _ _|* e- lei- * son,|_ Ky- ri- e _|_ _ _ _|
 C,4 B,,2 A,,2 | E,8 |] %55
w: * e- lei-|son,|

